X:829
T:Mackenzie Hay #1 
C:Joe Buchanan's Scottish Tome - Page 402.2
I:402 2
R:Strathspey
U:T=!tenuto!
Z:Carl Allison
L:1/8
M:4/4
K:D
G | "D"F<(DF>A) {c}d2 (d>Tf) | "A"(e>>Tc) "E"(d>>TB) "A"c<AA>=c |
"G"B<(Gd>B) A2 (F>D) | "A"(E>>TA) "E"(^G>>TB) "A"((3ABA) "A"((3=GFE) |
"D"F<(DF>A) {c}d2 (d>Tf) | "A"(e>>Tc) "E"(d>>TB) "A"(c<TA)(A>T=c) |
"G"((3BGB) ((3dcB) "D"((3Afe) ((3dcB) | "A"((3ABA) ((3GFE) "D"(F<D) [DA,]2 |]
g | "D"f<(d "A"g>Te) "A7"{f}a "D"(f>Td) | "A"(e>>Tc) "E"(d>>TB) "A"(c<A) (A>Tg) |
"D"fd "A"ge "D"af "G"bg | "D"(a>>Tf) "A"(g>>Te) "D"(f<d) (d>g) |
"D"f<(d "A"g>e) "A7"{g}a2 "D"(f>Td) | "A"(e>>Tc) "E"(d>>TB) "A"(c<A) (A>T=c) |
"G"((3BGB) ((3dcB) "D"((3Aag) ((3fed) | "A"((3cBA) ((3GFE) "D"(F<D) [DA,]2 |]

